www/assets/icons/support_agent.svg

<svg width="24" height="24" viewBox="0 0 24 24" xmlns="http://www.w3.org/2000/svg" fill='currentColor'><path d="M21 12.22C21 6.73 16.74 3 12 3C7.31 3 3 6.65 3 12.28C2.4 12.62 2 13.26 2 14V16C2 17.1 2.9 18 4 18H5V11.9C5 8.03 8.13 4.9 12 4.9C15.87 4.9 19 8.03 19 11.9V19H11V21H19C20.1 21 21 20.1 21 19V17.78C21.59 17.47 22 16.86 22 16.14V13.84C22 13.14 21.59 12.53 21 12.22Z"/><path d="M9 14C9.55228 14 10 13.5523 10 13C10 12.4477 9.55228 12 9 12C8.44772 12 8 12.4477 8 13C8 13.5523 8.44772 14 9 14Z"/><path d="M15 14C15.5523 14 16 13.5523 16 13C16 12.4477 15.5523 12 15 12C14.4477 12 14 12.4477 14 13C14 13.5523 14.4477 14 15 14Z"/><path d="M18 11.03C17.52 8.18 15.04 6 12.05 6C9.02 6 5.76 8.51 6.02 12.45C8.49 11.44 10.35 9.24 10.88 6.56C12.19 9.19 14.88 11 18 11.03Z"/></svg>

<svg xmlns="http://www.w3.org/2000/svg" width="24" height="24" viewBox="0 0 24 24" fill='currentColor'><path d="M21 12.22C21 6.73 16.74 3 12 3c-4.69 0-9 3.65-9 9.28-.6.34-1 .98-1 1.72v2c0 1.1.9 2 2 2h1v-6.1c0-3.87 3.13-7 7-7s7 3.13 7 7V19h-8v2h8c1.1 0 2-.9 2-2v-1.22c.59-.31 1-.92 1-1.64v-2.3c0-.7-.41-1.31-1-1.62"/><path d="M9 14a1 1 0 1 0 0-2 1 1 0 0 0 0 2m6 0a1 1 0 1 0 0-2 1 1 0 0 0 0 2"/><path d="M18 11.03A6.04 6.04 0 0 0 12.05 6c-3.03 0-6.29 2.51-6.03 6.45a8.07 8.07 0 0 0 4.86-5.89c1.31 2.63 4 4.44 7.12 4.47"/></svg>
